; HEADER_BLOCK_START
; generated by OrcaSlicer 2.3.1 on 2026-01-08 at 21:20:31
; total layer number: 69
; filament_density: 2.4
; filament_diameter: 4
; max_z_height: 136.00
; HEADER_BLOCK_END

; THUMBNAIL_BLOCK_START

;
; THUMBNAIL_BLOCK_END

; THUMBNAIL_BLOCK_START

;
; THUMBNAIL_BLOCK_END

; external perimeters extrusion width = 4.00mm
; perimeters extrusion width = 4.00mm
; infill extrusion width = 4.00mm
; solid infill extrusion width = 4.00mm
; top infill extrusion width = 4.00mm
; first layer extrusion width = 4.00mm

; EXECUTABLE_BLOCK_START
EXCLUDE_OBJECT_DEFINE NAME=003-Pen_Holder-Three_Petals_Twist.STL_id_0_copy_0 CENTER=135,135 POLYGON=[[67.4385,135.938],[67.488,132.769],[67.6739,128.951],[67.7642,127.629],[67.9622,125.369],[68.2534,122.928],[68.7161,120.084],[69.3095,117.333],[70.0398,114.683],[70.4192,113.512],[70.5286,113.195],[71.2479,111.318],[72.0653,109.548],[72.7436,108.308],[72.996,107.889],[73.9579,106.472],[75.1689,105.004],[97.3315,78.2104],[98.4387,76.9503],[99.3183,76.1001],[99.6275,75.8284],[100.887,74.8557],[101.129,74.6922],[102.266,74.0304],[102.461,73.9343],[103.446,73.5265],[103.965,73.3617],[104.157,73.3094],[105.438,73.0711],[155.683,70.495],[156.046,70.4805],[157.417,70.4957],[157.876,70.5247],[159.621,70.7438],[161.323,71.1309],[162.477,71.501],[164.276,72.2462],[166.361,73.3192],[169.081,74.9469],[172.295,77.0167],[173.395,77.756],[175.253,79.0573],[177.221,80.5297],[179.452,82.352],[181.537,84.2414],[183.468,86.1991],[184.293,87.1138],[184.513,87.367],[185.778,88.9285],[186.902,90.5212],[187.637,91.7289],[187.874,92.1566],[188.62,93.6983],[189.286,95.4813],[201.409,128.071],[201.946,129.66],[202.243,130.847],[202.324,131.251],[202.536,132.827],[202.557,133.119],[202.562,134.434],[202.547,134.652],[202.408,135.709],[202.291,136.241],[202.24,136.433],[201.806,137.661],[178.914,182.463],[178.745,182.785],[178.047,183.964],[177.792,184.347],[176.73,185.749],[175.544,187.029],[174.646,187.844],[173.101,189.029],[171.13,190.298],[168.36,191.84],[164.961,193.588],[163.77,194.171],[161.715,195.13],[159.456,196.098],[156.762,197.119],[154.083,197.98],[151.422,198.673],[150.217,198.93],[149.888,198.994],[147.903,199.31],[145.962,199.487],[144.548,199.519],[144.06,199.51],[142.351,199.386],[140.474,199.071],[106.189,193.274],[104.544,192.945],[103.368,192.609],[102.978,192.477],[101.506,191.873],[101.243,191.744],[100.102,191.091],[99.9211,190.97],[99.0753,190.321],[98.6731,189.954],[98.5317,189.814],[97.685,188.824],[70.3315,146.598],[70.1375,146.291],[69.4653,145.096],[69.2609,144.684],[68.578,143.063],[68.0626,141.396],[67.8059,140.211],[67.5516,138.28],[67.4385,135.938]]
M73 P0 R105
;TYPE:Custom
PRINT_START EXTRUDER=0 BED=0
G90
G21
M83 ; use relative distances for extrusion
; Filament gcode
M106 S255
;LAYER_CHANGE
;Z:2
;HEIGHT:2
;BEFORE_LAYER_CHANGE
;2
G92 E0

G1 Z2 F9000
;AFTER_LAYER_CHANGE
;2
;_SET_FAN_SPEED_CHANGING_LAYER
SET_VELOCITY_LIMIT ACCEL=500 ACCEL_TO_DECEL=250
SET_VELOCITY_LIMIT SQUARE_CORNER_VELOCITY=3
G1 E-.1 F2400
G1 Z3 F9000
G1 X89.505 Y88.134
G1 Z2
G1 Z2
G1 E.1 F2400
;TYPE:Skirt
;WIDTH:4
G1 F504.089
G1 X92.621 Y85.323 E2.38497
G1 X94.521 Y83.894 E1.35131
G1 X95.756 Y83.078 E.84089
G1 X111.245 Y73.885 E10.23646
G1 X113.77 Y72.786 E1.56509
G1 X115.233 Y72.336 E.86961
G1 X116.594 Y72.024 E.79354
G1 X119.338 Y71.695 E1.57081
G1 X121.66 Y71.709 E1.31957
G1 X124.378 Y72.04 E1.55623
G1 X126.035 Y72.415 E.96517
G1 X127.59 Y72.884 E.923
G1 X177.131 Y89.978 E29.7837
G1 X179.12 Y90.789 E1.22083
G1 X180.326 Y91.372 E.76092
G1 X182.376 Y92.588 E1.35505
G1 X183.642 Y93.483 E.88069
G1 X185.08 Y94.658 E1.05549
G1 X186.267 Y95.779 E.92805
G1 X187.853 Y97.494 E1.32719
G1 X189.773 Y100.076 E1.82901
G1 X191.33 Y102.725 E1.74571
G1 X192.726 Y105.618 E1.82586
G1 X194.108 Y108.794 E1.96825
G1 X195.525 Y112.436 E2.22085
G1 X196.288 Y114.806 E1.41507
G1 X196.978 Y117.32 E1.48191
G1 X197.459 Y119.6 E1.32379
G1 X197.761 Y121.517 E1.10306
G1 X198.007 Y125.001 E1.9852
G1 X198.214 Y141.271 E9.24701
G1 X198.07 Y143.84 E1.46212
G1 X197.546 Y146.512 E1.54749
G1 X197.04 Y148.113 E.95424
G1 X196.513 Y149.405 E.79277
G1 X195.248 Y151.804 E1.54153
G1 X193.945 Y153.701 E1.30789
G1 X192.469 Y155.422 E1.28865
G1 X190.892 Y156.939 E1.24339
G1 X150.424 Y192.015 E30.43501
G1 X148.237 Y193.537 E1.51437
G1 X146.434 Y194.533 E1.17071
G1 X145.027 Y195.182 E.88045
G1 X143.29 Y195.84 E1.05553
G1 X141.725 Y196.307 E.92808
G1 X139.448 Y196.823 E1.32702
G1 X138.142 Y197.018 E.75024
G1 X135.591 Y197.226 E1.45462
G1 X133.18 Y197.219 E1.37067
G1 X129.975 Y196.982 E1.82591
G1 X126.016 Y196.522 E2.26525
M73 P0 R104
G1 X122.672 Y195.997 E1.92394
G1 X120.238 Y195.473 E1.41494
G1 X117.715 Y194.813 E1.48193
G1 X114.704 Y193.797 E1.8058
G1 X112.516 Y192.866 E1.35139
G1 X110.548 Y191.864 E1.25516
G1 X95.587 Y183.449 E9.75494
G1 X94.202 Y182.499 E.95474
G1 X93.043 Y181.551 E.851
G1 X91.2 Y179.685 E1.49015
G1 X90.161 Y178.368 E.95346
G1 X88.716 Y176.073 E1.54137
G1 X87.829 Y174.247 E1.15381
G1 X86.972 Y171.857 E1.44273
G1 X86.593 Y170.418 E.84556
G1 X76.304 Y117.149 E30.83306
G1 X76.09 Y114.818 E1.32996
G1 X76.076 Y113.8 E.57862
G1 X76.146 Y112.031 E1.00653
G1 X76.41 Y109.879 E1.23215
G1 X76.937 Y107.469 E1.4017
G1 X77.309 Y106.205 E.74925
G1 X77.752 Y104.904 E.78058
G1 X78.504 Y103.124 E1.09855
G1 X79.208 Y101.697 E.90381
G1 X80.213 Y99.946 E1.14735
G1 X82.227 Y96.956 E2.0492
G1 X86.126 Y91.841 E3.65481
G1 X89.235 Y88.429 E2.62346
G1 E-.1 F2400
G1 Z3 F9000
G1 X91.869 Y90.837
G1 Z2
G1 E.1 F2400
G1 F504.089
G1 X92.077 Y90.61 E.17485
G1 X94.832 Y88.128 E2.10748
G1 X96.49 Y86.873 E1.18146
G1 X97.724 Y86.058 E.84089
G1 X112.929 Y77.034 E10.04829
G1 X114.93 Y76.163 E1.24005
G1 X117.24 Y75.536 E1.36064
G1 X119.528 Y75.261 E1.30967
G1 X121.507 Y75.277 E1.12461
G1 X123.763 Y75.558 E1.2921
G1 X126.425 Y76.259 E1.56433
G1 X175.966 Y93.353 E29.7837
G1 X178.632 Y94.515 E1.65261
G1 X180.383 Y95.551 E1.15635
G1 X181.518 Y96.353 E.78973
G1 X182.77 Y97.381 E.92027
G1 X183.681 Y98.241 E.71225
G1 X185.109 Y99.779 E1.19279
G1 X186.769 Y102.007 E1.5789
G1 X188.182 Y104.41 E1.58426
G1 X189.452 Y107.042 E1.66074
G1 X190.833 Y110.218 E1.96825
G1 X192.13 Y113.542 E2.0277
G1 X192.857 Y115.795 E1.3457
G1 X193.489 Y118.08 E1.34695
G1 X193.959 Y120.306 E1.29315
G1 X194.227 Y122.029 E.99096
G1 X194.437 Y125.047 E1.7191
G1 X194.644 Y141.317 E9.24701
M73 P1 R104
G1 X194.557 Y143.137 E1.03596
G1 X194.107 Y145.55 E1.39458
G1 X193.77 Y146.65 E.65412
G1 X193.271 Y147.908 E.76906
G1 X192.235 Y149.888 E1.26981
G1 X191.11 Y151.53 E1.13154
G1 X189.907 Y152.935 E1.05091
G1 X188.551 Y154.243 E1.07039
G1 X148.291 Y189.152 E30.28357
G1 X146.361 Y190.498 E1.33751
G1 X144.865 Y191.326 E.9719
G1 X143.603 Y191.907 E.78954
G1 X140.886 Y192.836 E1.63161
G1 X138.489 Y193.365 E1.39512
G1 X136.081 Y193.628 E1.37666
G1 X133.687 Y193.663 E1.36087
G1 X130.834 Y193.477 E1.62457
G1 X126.938 Y193.043 E2.22784
G1 X124.121 Y192.631 E1.61819
G1 X121.096 Y192.007 E1.75513
G1 X118.802 Y191.412 E1.34697
G1 X116.028 Y190.481 E1.66308
G1 X114.112 Y189.672 E1.18153
G1 X112.294 Y188.749 E1.15882
G1 X97.449 Y180.402 E9.67875
G1 X96.331 Y179.632 E.7716
G1 X95.388 Y178.858 E.69321
G1 X93.918 Y177.369 E1.18871
G1 X93.078 Y176.308 E.76911
G1 X91.882 Y174.421 E1.26969
G1 X91.127 Y172.876 E.97747
G1 X90.676 Y171.71 E.7108
G1 X90.08 Y169.651 E1.21774
G1 X79.851 Y116.733 E30.63066
G1 X79.646 Y113.856 E1.63908
G1 X79.709 Y112.275 E.89927
G1 X79.923 Y110.518 E1.00607
G1 X80.362 Y108.478 E1.18593
G1 X80.735 Y107.213 E.74925
G1 X81.771 Y104.565 E1.61641
G1 X83.246 Y101.83 E1.76597
G1 X85.098 Y99.08 E1.88409
G1 X88.922 Y94.061 E3.58575
G1 X91.6 Y91.133 E2.25509
M73 P1 R103
; printing object 003-Pen Holder-Three Petals Twist.STL id:0 copy 0
G1 E-.1 F2400
G1 Z3 F9000
EXCLUDE_OBJECT_START NAME=003-Pen_Holder-Three_Petals_Twist.STL_id_0_copy_0
G1 X101.518 Y100.681
G1 Z2
G1 E.1 F2400
;TYPE:Outer wall
G1 F504.089
G1 X101.958 Y100.223 E.36064
G1 X103.416 Y98.914 E1.11382
G1 X104.158 Y98.329 E.53699
G1 X105.23 Y97.621 E.72976
G1 X106.273 Y97.088 E.66597
G1 X106.944 Y96.821 E.41027
G1 X107.515 Y96.665 E.33668
G1 X108.559 Y96.458 E.60448
G1 X109.395 Y96.384 E.47727
G1 X109.802 Y96.38 E.23106
G1 X110.175 Y96.345 E.21298
G1 X111 Y96.383 E.46964
G1 X111.391 Y96.426 E.22317
G1 X112.212 Y96.564 E.47346
G1 X112.96 Y96.752 E.43831
G1 X114.083 Y97.147 E.67637
G1 X115.074 Y97.631 E.62675
G1 X116.04 Y98.246 E.6512
G1 X117.003 Y99.032 E.70625
G1 X117.888 Y99.953 E.72561
G1 X118.463 Y100.703 E.53729
G1 X118.75 Y101.14 E.2972
G1 X119.088 Y101.726 E.38434
G1 X119.574 Y102.78 E.65944
G1 X119.878 Y103.682 E.54089
G1 X120.135 Y104.831 E.66917
G1 X120.26 Y106.159 E.75819
G1 X120.249 Y107.165 E.57154
G1 X120.111 Y108.361 E.68416
G1 X119.863 Y109.457 E.63912
G1 X119.501 Y110.491 E.62228
G1 X119.367 Y110.801 E.19202
G1 X119.007 Y111.476 E.43486
G1 X118.685 Y111.971 E.33524
G1 X118.335 Y112.438 E.33195
G1 X117.611 Y113.281 E.63147
G1 X115.491 Y115.561 E1.76939
G1 X114.117 Y117.2 E1.21537
G1 X112.885 Y118.918 E1.20163
G1 X112.41 Y119.671 E.50591
G1 X111.777 Y120.771 E.72101
G1 X111.263 Y121.784 E.64544
G1 X110.386 Y123.841 E1.27116
G1 X109.684 Y125.983 E1.28133
G1 X109.194 Y128.025 E1.1934
G1 X108.96 Y129.356 E.76795
G1 X108.828 Y130.384 E.5889
G1 X108.745 Y131.338 E.54416
G1 X108.673 Y133.428 E1.18834
G1 X108.79 Y135.664 E1.27285
G1 X109.124 Y138.006 E1.34438
G1 X109.588 Y140.054 E1.19318
G1 X110.27 Y142.204 E1.28171
G1 X111.128 Y144.276 E1.27452
G1 X112.217 Y146.362 E1.33771
G1 X113.261 Y148.026 E1.1162
G1 X114.608 Y149.826 E1.2777
G1 X116.273 Y151.652 E1.40467
G1 X116.427 Y151.87 E.15159
G1 X116.918 Y152.317 E.37741
G1 X117.717 Y152.686 E.49974
G1 X118.581 Y152.737 E.49178
G1 X119.173 Y152.609 E.3443
G1 X119.634 Y152.42 E.28344
G1 X120.136 Y152.109 E.33519
G1 X120.654 Y151.625 E.40296
G1 X120.992 Y151.158 E.3278
G1 X121.231 Y150.696 E.29564
G1 X121.438 Y149.892 E.47195
G1 X121.398 Y149.163 E.41462
G1 X121.165 Y148.471 E.4149
G1 X120.743 Y147.891 E.40812
G1 X120.41 Y147.611 E.24688
G1 X119.214 Y146.287 E1.01388
G1 X118.118 Y144.844 E1.02977
G1 X117.095 Y143.206 E1.09768
G1 X116.454 Y141.964 E.79449
G1 X116.211 Y141.432 E.33213
G1 X115.746 Y140.28 E.70617
G1 X115.559 Y139.753 E.3179
G1 X115.193 Y138.551 E.71417
G1 X115.054 Y138.018 E.31282
G1 X114.794 Y136.79 E.71331
G1 X114.703 Y136.241 E.31628
G1 X114.584 Y135.32 E.52763
G1 X114.522 Y134.568 E.42888
G1 X114.478 Y133.505 E.60491
G1 X114.484 Y132.786 E.40814
G1 X114.538 Y131.68 E.62929
G1 X114.604 Y131.007 E.38476
G1 X114.761 Y129.852 E.66213
G1 X115.051 Y128.396 E.84366
G1 X115.321 Y127.36 E.60878
G1 X115.515 Y126.723 E.37818
G1 X115.848 Y125.777 E.56986
G1 X116.11 Y125.116 E.4043
G1 X116.591 Y124.072 E.65319
G1 X116.828 Y123.613 E.29341
G1 X117.375 Y122.673 E.61859
G1 X117.813 Y122.001 E.45536
G1 X119.048 Y120.352 E1.17095
G1 X120.784 Y118.372 E1.49635
G1 X122.161 Y116.876 E1.1555
G1 X123.219 Y115.575 E.95303
G1 X124.002 Y114.412 E.79688
G1 X124.504 Y113.511 E.58623
G1 X124.887 Y112.672 E.52418
G1 X125.22 Y111.797 E.53223
G1 X125.678 Y110.194 E.94705
G1 X125.962 Y108.523 E.96349
G1 X126.054 Y107.42 E.629
G1 X126.063 Y106.031 E.78947
G1 X126.025 Y105.342 E.39205
G1 X125.893 Y104.168 E.67146
G1 X125.742 Y103.312 E.49418
G1 X125.255 Y101.471 E1.08215
G1 X125.108 Y101.032 E.26278
G1 X124.445 Y99.422 E.98973
G1 X123.871 Y98.369 E.68149
G1 X123.395 Y97.571 E.52802
G1 X122.355 Y96.215 E.97118
G1 X121.15 Y95.016 E.96634
G1 X119.26 Y93.39 E1.4165
G1 X118.846 Y92.984 E.3297
G1 X118.616 Y92.711 E.20297
G1 X118.426 Y92.416 E.19931
G1 X118.3 Y92.138 E.17341
G1 X118.211 Y91.825 E.18511
G1 X118.174 Y91.319 E.28852
G1 X118.218 Y90.933 E.22075
G1 X118.296 Y90.61 E.18855
G1 X118.415 Y90.286 E.1961
G1 X118.553 Y90.012 E.17442
G1 X118.812 Y89.653 E.25128
G1 X119.009 Y89.457 E.15853
G1 X119.144 Y89.353 E.09661
G1 X119.357 Y89.23 E.13996
G1 X119.588 Y89.139 E.14108
G1 X119.954 Y89.057 E.21312
G1 X120.337 Y89.026 E.21834
G1 X120.716 Y89.046 E.21551
G1 X120.866 Y89.052 E.08537
G1 X121.328 Y89.127 E.26605
G1 X121.733 Y89.23 E.23769
G1 X121.896 Y89.281 E.09707
G1 X123.198 Y89.818 E.79996
G1 X124.834 Y90.685 E1.05268
G1 X127.146 Y91.868 E1.47599
G1 X128.157 Y92.368 E.64091
G1 X129.208 Y92.841 E.65475
G1 X131.262 Y93.678 E1.26062
G1 X135.417 Y95.442 E2.56521
G1 X138.241 Y96.617 E1.7383
G1 X139.355 Y97.057 E.68064
G1 X142.654 Y98.274 E1.99865
G1 X143.795 Y98.675 E.68737
G1 X146.074 Y99.417 E1.36183
G1 X150.347 Y100.902 E2.57099
G1 X151.589 Y101.3 E.74109
G1 X153.453 Y101.854 E1.10542
G1 X155.783 Y102.486 E1.37179
G1 X161.367 Y104.053 E3.29605
G1 X164.746 Y104.887 E1.97803
G1 X167.857 Y105.485 E1.80048
G1 X169.847 Y105.892 E1.1539
G1 X170.158 Y105.972 E.1827
G1 X171.424 Y106.371 E.75436
G1 X172.171 Y106.693 E.4621
G1 X172.341 Y106.784 E.10972
G1 X172.713 Y107.007 E.24651
G1 X173.282 Y107.41 E.39608
G1 X173.77 Y107.824 E.36368
G1 X174.56 Y108.654 E.65107
G1 X175.205 Y109.511 E.61009
G1 X175.496 Y109.964 E.3057
G1 X176.017 Y110.896 E.60705
G1 X176.826 Y112.576 E1.05946
G1 X178.178 Y115.685 E1.92687
G1 X179.035 Y117.854 E1.32549
G1 X179.297 Y118.71 E.50844
G1 X179.626 Y119.665 E.57448
G1 X180.031 Y121.071 E.83109
G1 X180.436 Y122.989 E1.1142
G1 X180.572 Y123.924 E.537
G1 X180.649 Y125.206 E.72976
G1 X180.589 Y126.376 E.66598
G1 X180.485 Y127.09 E.41026
G1 X180.335 Y127.663 E.33668
G1 X179.906 Y128.881 E.7339
G1 X179.638 Y129.432 E.34787
G1 X179.438 Y129.786 E.23105
G1 X179.282 Y130.127 E.21294
G1 X178.836 Y130.822 E.4697
G1 X178.604 Y131.139 E.2231
G1 X178.074 Y131.782 E.47353
G1 X177.541 Y132.331 E.43487
G1 X176.724 Y133.04 E.61483
G1 X175.713 Y133.729 E.69502
G1 X174.709 Y134.252 E.64352
G1 X173.387 Y134.743 E.80127
G1 X172.165 Y135.025 E.71313
G1 X171.363 Y135.125 E.45883
G1 X170.841 Y135.155 E.29717
G1 X170.165 Y135.155 E.38438
G1 X169.01 Y135.049 E.65944
G1 X168.077 Y134.861 E.54089
G1 X166.953 Y134.51 E.66913
G1 X166.778 Y134.439 E.10712
G1 X165.74 Y133.954 E.65125
G1 X164.875 Y133.441 E.57155
G1 X163.908 Y132.724 E.68415
G1 X163.082 Y131.961 E.63912
G1 X162.368 Y131.13 E.62228
G1 X162.167 Y130.859 E.19197
G1 X161.762 Y130.21 E.43493
G1 X161.495 Y129.684 E.33517
G1 X161.264 Y129.147 E.33203
G1 X160.897 Y128.099 E.63143
G1 X159.983 Y125.124 E1.76836
G1 X159.291 Y123.217 E1.15276
G1 X158.379 Y121.189 E1.26395
G1 X157.963 Y120.4 E.50717
G1 X157.327 Y119.301 E.72102
G1 X156.708 Y118.352 E.64407
G1 X155.441 Y116.656 E1.20345
G1 X153.861 Y114.882 E1.34997
G1 X152.243 Y113.353 E1.26495
G1 X151.298 Y112.567 E.69866
G1 X150.476 Y111.941 E.58703
G1 X149.692 Y111.392 E.54412
G1 X147.918 Y110.285 E1.18835
G1 X145.926 Y109.27 E1.27053
G1 X143.851 Y108.426 E1.27313
G1 X141.723 Y107.764 E1.26643
G1 X139.516 Y107.279 E1.2844
G1 X137.171 Y106.979 E1.34348
M73 P2 R103
G1 X135.072 Y106.884 E1.19403
G1 X132.979 Y106.959 E1.1903
G1 X130.624 Y107.249 E1.34838
G1 X128.291 Y107.764 E1.35801
G1 X127.814 Y107.829 E.27338
G1 X127.098 Y108.18 E.45351
G1 X126.543 Y108.709 E.43558
G1 X126.147 Y109.422 E.46354
G1 X125.986 Y110.232 E.46915
G1 X126.009 Y110.873 E.36438
G1 X126.166 Y111.555 E.39792
G1 X126.435 Y112.152 E.37232
G1 X126.861 Y112.741 E.41327
G1 X127.549 Y113.286 E.49819
G1 X128.459 Y113.58 E.54409
G1 X129.318 Y113.519 E.48938
G1 X129.765 Y113.358 E.26978
G1 X131.511 Y112.984 E1.01479
G1 X133.311 Y112.756 E1.03097
G1 X135.124 Y112.689 E1.0311
G1 X136.639 Y112.755 E.8618
G1 X137.217 Y112.81 E.33014
G1 X138.447 Y112.984 E.70621
G1 X138.998 Y113.086 E.31788
G1 X140.222 Y113.37 E.71418
G1 X140.752 Y113.516 E.31281
G1 X141.946 Y113.905 E.71329
G1 X142.467 Y114.1 E.31628
G1 X143.324 Y114.458 E.52766
G1 X144.006 Y114.78 E.42884
G1 X144.949 Y115.273 E.60493
G1 X145.568 Y115.638 E.40815
G1 X146.499 Y116.238 E.62929
G1 X147.047 Y116.629 E.38285
G1 X148.058 Y117.419 E.72912
G1 X149.085 Y118.323 E.7775
G1 X149.849 Y119.076 E.60981
G1 X150.303 Y119.561 E.37758
G1 X151.028 Y120.409 E.63417
G1 X151.396 Y120.879 E.33888
G1 X151.999 Y121.729 E.59234
G1 X152.342 Y122.258 E.35864
G1 X152.881 Y123.199 E.61592
G1 X153.244 Y123.913 E.45539
G1 X154.054 Y125.808 E1.17096
G1 X154.901 Y128.301 E1.49637
G1 X155.509 Y130.244 E1.15736
