; generated by PrusaSlicer 2.9.0 on 2025-03-07 at 08:15:33 UTC

; 

; external perimeters extrusion width = 10.00mm
; perimeters extrusion width = 10.00mm
; infill extrusion width = 10.00mm
; solid infill extrusion width = 10.00mm
; top infill extrusion width = 10.00mm
; first layer extrusion width = 10.00mm

;TYPE:Custom
CLEAR PAUSE
M83
G21 ; set units to millimeters
G90 ; use absolute coordinates
M83 ; use relative distances for extrusion
; Filament gcode
M107
;LAYER_CHANGE
;Z:7
;HEIGHT:7
G1 E-100 F3600
G1 Z7 F6000
G1 X29.206 Y103.004
G1 Z7
G1 E100 F2400
;TYPE:Skirt/Brim
;WIDTH:10
G1 F300
G1 X35 Y102.253 E288.97766
G1 X235 Y102.253 E9892.31393
G1 X239.242 Y102.652 E210.74207
G1 X243.336 Y103.836 E210.79388
G1 X247.137 Y105.762 E210.7613
G1 X250.512 Y108.363 E210.75404
G1 X253.343 Y111.548 E210.77122
G1 X255.53 Y115.205 E210.75863
G1 X256.996 Y119.206 E210.76176
G1 X257.747 Y125 E288.97766
G1 X257.747 Y145 E989.23139
G1 X257.348 Y149.242 E210.74207
G1 X256.164 Y153.336 E210.79388
G1 X254.238 Y157.137 E210.7613
G1 X251.637 Y160.512 E210.75404
G1 X248.452 Y163.343 E210.77122
G1 X244.795 Y165.53 E210.75863
G1 X240.794 Y166.996 E210.76176
G1 X235 Y167.747 E288.97766
G1 X35 Y167.747 E9892.31393
G1 X30.758 Y167.348 E210.74207
G1 X26.664 Y166.164 E210.79388
G1 X22.863 Y164.238 E210.7613
G1 X19.488 Y161.637 E210.75404
G1 X16.657 Y158.452 E210.77122
G1 X14.47 Y154.795 E210.75863
G1 X13.004 Y150.794 E210.76176
G1 X12.253 Y145 E288.97766
G1 X12.253 Y125 E989.23139
G1 X12.652 Y120.758 E210.74207
G1 X13.836 Y116.664 E210.79388
G1 X15.762 Y112.863 E210.7613
G1 X18.363 Y109.488 E210.75404
G1 X21.548 Y106.657 E210.77122
G1 X25.205 Y104.47 E210.75863
G1 X27.798 Y103.52 E136.59051
G1 E-70 F3600
;WIPE_START
G1 F4800
G1 X29.206 Y103.004 E-1.06845
G1 X35 Y102.253 E-4.16276
G1 X69.763 Y102.253 E-24.76879
;WIPE_END
G1 X30.031 Y111.69 F6000
G1 E100 F2400
G1 F300
G1 X32.895 Y110.907 E146.8566
G1 X35 Y110.751 E104.40213
G1 X235 Y110.751 E9892.31393
G1 X238.347 Y111.15 E166.72005
G1 X241.506 Y112.323 E166.67309
G1 X244.302 Y114.206 E166.73249
G1 X246.577 Y116.693 E166.71406
G1 X248.204 Y119.644 E166.67544
G1 X249.093 Y122.895 E166.70326
G1 X249.249 Y125 E104.40213
G1 X249.249 Y145 E989.23139
G1 X248.85 Y148.347 E166.72005
G1 X247.677 Y151.506 E166.67309
G1 X245.794 Y154.302 E166.73249
G1 X243.307 Y156.577 E166.71406
G1 X240.356 Y158.204 E166.67544
G1 X237.105 Y159.093 E166.70326
G1 X235 Y159.249 E104.40213
G1 X35 Y159.249 E9892.31393
G1 X31.653 Y158.85 E166.72005
G1 X28.494 Y157.677 E166.67309
G1 X25.698 Y155.794 E166.73249
G1 X23.423 Y153.307 E166.71406
G1 X21.796 Y150.356 E166.67544
G1 X20.907 Y147.105 E166.70326
G1 X20.751 Y145 E104.40213
G1 X20.751 Y125 E989.23139
G1 X21.15 Y121.653 E166.72005
G1 X22.323 Y118.494 E166.67309
G1 X24.206 Y115.698 E166.73249
G1 X26.693 Y113.423 E166.71406
G1 X28.682 Y112.327 E112.32609
G1 E-70 F3600
;WIPE_START
G1 F4800
G1 X30.031 Y111.69 E-1.06293
G1 X32.895 Y110.907 E-2.11549
G1 X35 Y110.751 E-1.50393
G1 X70.534 Y110.751 E-25.31765
;WIPE_END
G1 X40 Y130 F6000
G1 E100 F2400
;TYPE:External perimeter
G1 F300
G1 X230 Y130 E9397.69824
G1 X230 Y140 E494.6157
G1 X40 Y140 E9397.69824
G1 X40 Y131.5 E420.42334
;LAYER_CHANGE
;Z:14
;HEIGHT:7
;BEFORE_LAYER_CHANGE
G92 E0
;14


G1 Z7.000 F6000
;AFTER_LAYER_CHANGE
;14
G1 F300
G1 Z7.026 X40 Y130 E0.27822
G1 Z10.351 X230 Y130 E4499.14795
G1 Z10.526 X230 Y140 E249.16267
G1 Z13.851 X40 Y140 E9197.99707
G1 Z14.000 X40 Y131.5 E420.42334
;LAYER_CHANGE
;Z:21
;HEIGHT:7
;BEFORE_LAYER_CHANGE
G92 E0
;21


G1 Z14.000 F6000
;AFTER_LAYER_CHANGE
;21
G1 F300
G1 Z14.026 X40.000 Y130.000 E74.19235
G1 Z17.351 X230.000 Y130.000 E9397.69824
G1 Z17.526 X230.000 Y140.000 E494.61566
G1 Z20.851 X40.000 Y140.000 E9397.69824
G1 Z21.000 X40.000 Y131.500 E420.42334
;LAYER_CHANGE
;Z:28
;HEIGHT:7
;BEFORE_LAYER_CHANGE
G92 E0
;28


G1 Z21.000 F6000
;AFTER_LAYER_CHANGE
;28
G1 F300
G1 Z21.026 X40.000 Y130.000 E74.19235
G1 Z24.351 X230.000 Y130.000 E9397.69824
G1 Z24.526 X230.000 Y140.000 E494.61566
G1 Z27.851 X40.000 Y140.000 E9397.69824
G1 Z28.000 X40.000 Y131.500 E420.42334
;LAYER_CHANGE
;Z:35
;HEIGHT:7
;BEFORE_LAYER_CHANGE
G92 E0
;35


G1 Z28.000 F6000
;AFTER_LAYER_CHANGE
;35
G1 F300
G1 Z28.026 X40.000 Y130.000 E74.19235
G1 Z31.351 X230.000 Y130.000 E9397.69824
G1 Z31.526 X230.000 Y140.000 E494.61566
G1 Z34.851 X40.000 Y140.000 E9397.69824
G1 Z35.000 X40.000 Y131.500 E420.42334
;LAYER_CHANGE
;Z:42
;HEIGHT:7
;BEFORE_LAYER_CHANGE
G92 E0
;42


G1 Z35.000 F6000
;AFTER_LAYER_CHANGE
;42
G1 F300
G1 Z35.026 X40.000 Y130.000 E74.19235
G1 Z38.351 X230.000 Y130.000 E9397.69824
G1 Z38.526 X230.000 Y140.000 E494.61566
G1 Z41.851 X40.000 Y140.000 E9397.69824
G1 Z42.000 X40.000 Y131.500 E420.42334
;LAYER_CHANGE
;Z:49
;HEIGHT:7
;BEFORE_LAYER_CHANGE
G92 E0
;49


G1 Z42.000 F6000
;AFTER_LAYER_CHANGE
;49
G1 F300
G1 Z42.026 X40.000 Y130.000 E74.19235
G1 Z45.351 X230.000 Y130.000 E9397.69824
G1 Z45.526 X230.000 Y140.000 E494.61566
G1 Z48.851 X40.000 Y140.000 E9397.69824
G1 Z49.000 X40.000 Y131.500 E420.42334
;LAYER_CHANGE
;Z:56
;HEIGHT:7
;BEFORE_LAYER_CHANGE
G92 E0
;56


G1 Z49.000 F6000
;AFTER_LAYER_CHANGE
;56
G1 F300
G1 Z49.026 X40.000 Y130.000 E74.19235
G1 Z52.351 X230.000 Y130.000 E9397.69824
G1 Z52.526 X230.000 Y140.000 E494.61566
G1 Z55.851 X40.000 Y140.000 E9397.69824
G1 Z56.000 X40.000 Y131.500 E420.42334
;LAYER_CHANGE
;Z:63
;HEIGHT:7
;BEFORE_LAYER_CHANGE
G92 E0
;63


G1 Z56.000 F6000
;AFTER_LAYER_CHANGE
;63
G1 F300
G1 Z56.026 X40.000 Y130.000 E74.19235
G1 Z59.351 X230.000 Y130.000 E9397.69824
G1 Z59.526 X230.000 Y140.000 E494.61566
G1 Z62.851 X40.000 Y140.000 E9397.69824
G1 Z63.000 X40.000 Y131.500 E420.42334
;LAYER_CHANGE
;Z:70
;HEIGHT:7
;BEFORE_LAYER_CHANGE
G92 E0
;70


G1 Z63.000 F6000
;AFTER_LAYER_CHANGE
;70
G1 F300
G1 Z63.026 X40.000 Y130.000 E74.19235
G1 Z66.351 X230.000 Y130.000 E9397.69824
G1 Z66.526 X230.000 Y140.000 E494.61566
G1 Z69.851 X40.000 Y140.000 E9397.69824
G1 Z70.000 X40.000 Y131.500 E420.42334
;LAYER_CHANGE
;Z:77
;HEIGHT:7
;BEFORE_LAYER_CHANGE
G92 E0
;77


G1 Z70.000 F6000
;AFTER_LAYER_CHANGE
;77
G1 F300
G1 Z70.026 X40.000 Y130.000 E74.19235
G1 Z73.351 X230.000 Y130.000 E9397.69824
G1 Z73.526 X230.000 Y140.000 E494.61566
G1 Z76.851 X40.000 Y140.000 E9397.69824
G1 Z77.000 X40.000 Y131.500 E420.42334
;LAYER_CHANGE
;Z:84
;HEIGHT:7
;BEFORE_LAYER_CHANGE
G92 E0
;84


G1 Z77.000 F6000
;AFTER_LAYER_CHANGE
;84
G1 F300
G1 Z77.026 X40.000 Y130.000 E74.19235
G1 Z80.351 X230.000 Y130.000 E9397.69824
G1 Z80.526 X230.000 Y140.000 E494.61566
G1 Z83.851 X40.000 Y140.000 E9397.69824
G1 Z84.000 X40.000 Y131.500 E420.42334
;LAYER_CHANGE
;Z:91
;HEIGHT:7
;BEFORE_LAYER_CHANGE
G92 E0
;91


G1 Z84.000 F6000
;AFTER_LAYER_CHANGE
;91
G1 F300
G1 Z84.026 X40.000 Y130.000 E74.19235
G1 Z87.351 X230.000 Y130.000 E9397.69824
G1 Z87.526 X230.000 Y140.000 E494.61566
G1 Z90.851 X40.000 Y140.000 E9397.69824
G1 Z91.000 X40.000 Y131.500 E420.42334
;LAYER_CHANGE
;Z:98
;HEIGHT:7
;BEFORE_LAYER_CHANGE
G92 E0
;98


G1 Z91.000 F6000
;AFTER_LAYER_CHANGE
;98
G1 F300
G1 Z91.026 X40.000 Y130.000 E74.19235
G1 Z94.351 X230.000 Y130.000 E9397.69824
G1 Z94.526 X230.000 Y140.000 E494.61566
G1 Z97.851 X40.000 Y140.000 E9397.69824
G1 Z98.000 X40.000 Y131.500 E420.42334
;LAYER_CHANGE
;Z:105
;HEIGHT:7
;BEFORE_LAYER_CHANGE
G92 E0
;105


G1 Z98.000 F6000
;AFTER_LAYER_CHANGE
;105
G1 F300
G1 Z98.026 X40.000 Y130.000 E74.19235
G1 Z101.351 X230.000 Y130.000 E9397.69824
G1 Z101.526 X230.000 Y140.000 E494.61566
G1 Z104.851 X40.000 Y140.000 E9397.69824
G1 Z105.000 X40.000 Y131.500 E420.42334
;LAYER_CHANGE
;Z:112
;HEIGHT:7
;BEFORE_LAYER_CHANGE
G92 E0
;112


G1 Z105.000 F6000
;AFTER_LAYER_CHANGE
;112
G1 F300
G1 Z105.026 X40.000 Y130.000 E74.19235
G1 Z108.351 X230.000 Y130.000 E9397.69824
G1 Z108.526 X230.000 Y140.000 E494.61566
G1 Z111.851 X40.000 Y140.000 E9397.69824
G1 Z112.000 X40.000 Y131.500 E420.42334
;LAYER_CHANGE
;Z:119
;HEIGHT:7
;BEFORE_LAYER_CHANGE
G92 E0
;119


G1 Z112.000 F6000
;AFTER_LAYER_CHANGE
;119
G1 F300
G1 Z112.026 X40.000 Y130.000 E74.19235
G1 Z115.351 X230.000 Y130.000 E9397.69824
G1 Z115.526 X230.000 Y140.000 E494.61566
G1 Z118.851 X40.000 Y140.000 E9397.69824
G1 Z119.000 X40.000 Y131.500 E420.42334
;LAYER_CHANGE
;Z:126
;HEIGHT:7
;BEFORE_LAYER_CHANGE
G92 E0
;126


G1 Z119.000 F6000
;AFTER_LAYER_CHANGE
;126
G1 F300
G1 Z119.026 X40.000 Y130.000 E74.19235
G1 Z122.351 X230.000 Y130.000 E9397.69824
G1 Z122.526 X230.000 Y140.000 E494.61566
G1 Z125.851 X40.000 Y140.000 E9397.69824
G1 Z126.000 X40.000 Y131.500 E420.42334
;LAYER_CHANGE
;Z:133
;HEIGHT:7
;BEFORE_LAYER_CHANGE
G92 E0
;133


G1 Z126.000 F6000
;AFTER_LAYER_CHANGE
;133
G1 F300
G1 Z126.026 X40.000 Y130.000 E74.19235
G1 Z129.351 X230.000 Y130.000 E9397.69824
G1 Z129.526 X230.000 Y140.000 E494.61566
G1 Z132.851 X40.000 Y140.000 E9397.69824
G1 Z133.000 X40.000 Y131.500 E420.42334
;LAYER_CHANGE
;Z:140
;HEIGHT:7
;BEFORE_LAYER_CHANGE
G92 E0
;140


G1 Z133.000 F6000
;AFTER_LAYER_CHANGE
;140
G1 F300
G1 Z133.026 X40.000 Y130.000 E74.19235
G1 Z136.351 X230.000 Y130.000 E9397.69824
G1 Z136.526 X230.000 Y140.000 E494.61566
G1 Z139.851 X40.000 Y140.000 E9397.69824
G1 Z140.000 X40.000 Y131.500 E420.42334
;LAYER_CHANGE
;Z:147
;HEIGHT:7
;BEFORE_LAYER_CHANGE
G92 E0
;147


G1 Z140.000 F6000
;AFTER_LAYER_CHANGE
;147
G1 F300
G1 Z140.026 X40.000 Y130.000 E74.19235
G1 Z143.351 X230.000 Y130.000 E9397.69824
G1 Z143.526 X230.000 Y140.000 E494.61566
G1 Z146.851 X40.000 Y140.000 E9397.69824
G1 Z147.000 X40.000 Y131.500 E420.42334
;LAYER_CHANGE
;Z:154
;HEIGHT:7
;BEFORE_LAYER_CHANGE
G92 E0
;154


G1 Z147.000 F6000
;AFTER_LAYER_CHANGE
;154
G1 F300
G1 Z147.026 X40.000 Y130.000 E74.19235
G1 Z150.351 X230.000 Y130.000 E9397.69824
G1 Z150.526 X230.000 Y140.000 E494.61566
G1 Z153.851 X40.000 Y140.000 E9397.69824
G1 Z154.000 X40.000 Y131.500 E420.42334
;LAYER_CHANGE
;Z:161
;HEIGHT:7
;BEFORE_LAYER_CHANGE
G92 E0
;161


G1 Z154.000 F6000
;AFTER_LAYER_CHANGE
;161
G1 F300
G1 Z154.026 X40.000 Y130.000 E74.19235
G1 Z157.351 X230.000 Y130.000 E9397.69824
G1 Z157.526 X230.000 Y140.000 E494.61566
G1 Z160.851 X40.000 Y140.000 E9397.69824
G1 Z161.000 X40.000 Y131.500 E420.42334
;LAYER_CHANGE
;Z:168
;HEIGHT:7
;BEFORE_LAYER_CHANGE
G92 E0
;168


G1 Z161.000 F6000
;AFTER_LAYER_CHANGE
;168
G1 F300
G1 Z161.026 X40.000 Y130.000 E74.19235
G1 Z164.351 X230.000 Y130.000 E9397.69824
G1 Z164.526 X230.000 Y140.000 E494.61566
G1 Z167.851 X40.000 Y140.000 E9397.69824
G1 Z168.000 X40.000 Y131.500 E420.42334
;LAYER_CHANGE
;Z:175
;HEIGHT:7
;BEFORE_LAYER_CHANGE
G92 E0
;175


G1 Z168.000 F6000
;AFTER_LAYER_CHANGE
;175
G1 F300
G1 Z168.026 X40.000 Y130.000 E74.19235
G1 Z171.351 X230.000 Y130.000 E9397.69824
G1 Z171.526 X230.000 Y140.000 E494.61566
G1 Z174.851 X40.000 Y140.000 E9397.69824
G1 Z175.000 X40.000 Y131.500 E420.42334
;LAYER_CHANGE
;Z:182
;HEIGHT:7
;BEFORE_LAYER_CHANGE
G92 E0
;182


G1 Z175.000 F6000
;AFTER_LAYER_CHANGE
;182
G1 F300
G1 Z175.026 X40.000 Y130.000 E74.19235
G1 Z178.351 X230.000 Y130.000 E9397.69824
G1 Z178.526 X230.000 Y140.000 E494.61566
G1 Z181.851 X40.000 Y140.000 E9397.69824
G1 Z182.000 X40.000 Y131.500 E420.42334
;LAYER_CHANGE
;Z:189
;HEIGHT:7
;BEFORE_LAYER_CHANGE
G92 E0
;189


G1 Z182.000 F6000
;AFTER_LAYER_CHANGE
;189
G1 F300
G1 Z182.026 X40.000 Y130.000 E74.19235
G1 Z185.351 X230.000 Y130.000 E9397.69824
G1 Z185.526 X230.000 Y140.000 E494.61566
G1 Z188.851 X40.000 Y140.000 E9397.69824
G1 Z189.000 X40.000 Y131.500 E420.42334
;LAYER_CHANGE
;Z:196
;HEIGHT:7
;BEFORE_LAYER_CHANGE
G92 E0
;196


G1 Z189.000 F6000
;AFTER_LAYER_CHANGE
;196
G1 F300
G1 Z189.026 X40.000 Y130.000 E74.19235
G1 Z192.351 X230.000 Y130.000 E9397.69824
G1 Z192.526 X230.000 Y140.000 E494.61566
G1 Z195.851 X40.000 Y140.000 E9397.69824
G1 Z196.000 X40.000 Y131.500 E420.42334
;LAYER_CHANGE
;Z:203
;HEIGHT:7
;BEFORE_LAYER_CHANGE
G92 E0
;203


G1 Z196.000 F6000
;AFTER_LAYER_CHANGE
;203
G1 F300
G1 Z196.026 X40.000 Y130.000 E74.19235
G1 Z199.351 X230.000 Y130.000 E9397.69824
G1 Z199.526 X230.000 Y140.000 E494.61566
G1 Z202.851 X40.000 Y140.000 E9397.69824
G1 Z203.000 X40.000 Y131.500 E420.42334
;LAYER_CHANGE
;Z:210
;HEIGHT:7
;BEFORE_LAYER_CHANGE
G92 E0
;210


G1 Z203.000 F6000
;AFTER_LAYER_CHANGE
;210
G1 F300
G1 Z203.026 X40.000 Y130.000 E74.19235
G1 Z206.351 X230.000 Y130.000 E9397.69824
G1 Z206.526 X230.000 Y140.000 E494.61566
G1 Z209.851 X40.000 Y140.000 E9397.69824
G1 Z210.000 X40.000 Y131.500 E420.42334
;LAYER_CHANGE
;Z:217
;HEIGHT:7
;BEFORE_LAYER_CHANGE
G92 E0
;217


G1 Z210.000 F6000
;AFTER_LAYER_CHANGE
;217
G1 F300
G1 Z210.026 X40.000 Y130.000 E74.19235
G1 Z213.351 X230.000 Y130.000 E9397.69824
G1 Z213.526 X230.000 Y140.000 E494.61566
G1 Z216.851 X40.000 Y140.000 E9397.69824
G1 Z217.000 X40.000 Y131.500 E420.42334
;LAYER_CHANGE
;Z:224
;HEIGHT:7
;BEFORE_LAYER_CHANGE
G92 E0
;224


G1 Z217.000 F6000
;AFTER_LAYER_CHANGE
;224
G1 F300
G1 Z217.026 X40.000 Y130.000 E74.19235
G1 Z220.351 X230.000 Y130.000 E9397.69824
G1 Z220.526 X230.000 Y140.000 E494.61566
G1 Z223.851 X40.000 Y140.000 E9397.69824
G1 Z224.000 X40.000 Y131.500 E420.42334
;LAYER_CHANGE
;Z:231
;HEIGHT:7
;BEFORE_LAYER_CHANGE
G92 E0
;231


G1 Z224.000 F6000
;AFTER_LAYER_CHANGE
;231
G1 F300
G1 Z224.026 X40.000 Y130.000 E74.19235
G1 Z227.351 X230.000 Y130.000 E9397.69824
G1 Z227.526 X230.000 Y140.000 E494.61566
G1 Z230.851 X40.000 Y140.000 E9397.69824
G1 Z231.000 X40.000 Y131.500 E420.42334
;LAYER_CHANGE
;Z:238
;HEIGHT:7
;BEFORE_LAYER_CHANGE
G92 E0
;238


G1 Z231.000 F6000
;AFTER_LAYER_CHANGE
;238
G1 F300
G1 Z231.026 X40.000 Y130.000 E74.19235
G1 Z234.351 X230.000 Y130.000 E9397.69824
G1 Z234.526 X230.000 Y140.000 E494.61566
G1 Z237.851 X40.000 Y140.000 E9397.69824
G1 Z238.000 X40.000 Y131.500 E420.42334
;LAYER_CHANGE
;Z:245
;HEIGHT:7
;BEFORE_LAYER_CHANGE
G92 E0
;245


G1 Z238.000 F6000
;AFTER_LAYER_CHANGE
;245
G1 F300
G1 Z238.026 X40.000 Y130.000 E74.19235
G1 Z241.351 X230.000 Y130.000 E9397.69824
G1 Z241.526 X230.000 Y140.000 E494.61566
G1 Z244.851 X40.000 Y140.000 E9397.69824
G1 Z245.000 X40.000 Y131.500 E420.42334
;LAYER_CHANGE
;Z:252
;HEIGHT:7
;BEFORE_LAYER_CHANGE
G92 E0
;252


G1 Z245.000 F6000
;AFTER_LAYER_CHANGE
;252
G1 F300
G1 Z245.026 X40.000 Y130.000 E74.19235
G1 Z248.351 X230.000 Y130.000 E9397.69824
G1 Z248.526 X230.000 Y140.000 E494.61566
G1 Z251.851 X40.000 Y140.000 E9397.69824
G1 Z252.000 X40.000 Y131.500 E420.42334
;LAYER_CHANGE
;Z:259
;HEIGHT:7
;BEFORE_LAYER_CHANGE
G92 E0
;259


G1 Z252.000 F6000
;AFTER_LAYER_CHANGE
;259
G1 F300
G1 Z252.026 X40.000 Y130.000 E74.19235
G1 Z255.351 X230.000 Y130.000 E9397.69824
G1 Z255.526 X230.000 Y140.000 E494.61566
G1 Z258.851 X40.000 Y140.000 E9397.69824
G1 Z259.000 X40.000 Y131.500 E420.42334
;LAYER_CHANGE
;Z:266
;HEIGHT:7
;BEFORE_LAYER_CHANGE
G92 E0
;266


G1 Z259.000 F6000
;AFTER_LAYER_CHANGE
;266
G1 F300
G1 Z259.026 X40.000 Y130.000 E74.19235
G1 Z262.351 X230.000 Y130.000 E9397.69824
G1 Z262.526 X230.000 Y140.000 E494.61566
G1 Z265.851 X40.000 Y140.000 E9397.69824
G1 Z266.000 X40.000 Y131.500 E420.42334
;LAYER_CHANGE
;Z:273
;HEIGHT:7
;BEFORE_LAYER_CHANGE
G92 E0
;273


G1 Z266.000 F6000
;AFTER_LAYER_CHANGE
;273
G1 F300
G1 Z266.026 X40.000 Y130.000 E74.19235
G1 Z269.351 X230.000 Y130.000 E9397.69824
G1 Z269.526 X230.000 Y140.000 E494.61566
G1 Z272.851 X40.000 Y140.000 E9397.69824
G1 Z273.000 X40.000 Y131.500 E420.42334
;LAYER_CHANGE
;Z:280
;HEIGHT:7
;BEFORE_LAYER_CHANGE
G92 E0
;280


G1 Z273.000 F6000
;AFTER_LAYER_CHANGE
;280
G1 F300
G1 Z273.026 X40.000 Y130.000 E74.19235
G1 Z276.351 X230.000 Y130.000 E9397.69824
G1 Z276.526 X230.000 Y140.000 E494.61566
G1 Z279.851 X40.000 Y140.000 E9397.69824
G1 Z280.000 X40.000 Y131.500 E420.42334
;LAYER_CHANGE
;Z:287
;HEIGHT:7
;BEFORE_LAYER_CHANGE
G92 E0
;287


G1 Z280.000 F6000
;AFTER_LAYER_CHANGE
;287
G1 F300
G1 Z280.026 X40.000 Y130.000 E74.19235
G1 Z283.351 X230.000 Y130.000 E9397.69824
G1 Z283.526 X230.000 Y140.000 E494.61566
G1 Z286.851 X40.000 Y140.000 E9397.69824
G1 Z287.000 X40.000 Y131.500 E420.42334
;LAYER_CHANGE
;Z:294
;HEIGHT:7
;BEFORE_LAYER_CHANGE
G92 E0
;294


G1 Z287.000 F6000
;AFTER_LAYER_CHANGE
;294
G1 F300
G1 Z287.026 X40.000 Y130.000 E74.19235
